src/img/system/web-dev.svg

<svg width="1920" height="273" viewBox="0 0 1920 273" fill="none" xmlns="http://www.w3.org/2000/svg">
<path d="M54.56 273L53.5945 273.26L53.7939 274H54.56V273ZM166.28 273V274H167.076L167.254 273.225L166.28 273ZM204.28 108.08V107.08H203.484L203.306 107.855L204.28 108.08ZM208.08 108.08L209.054 107.855L208.876 107.08H208.08V108.08ZM246.08 273L245.106 273.225L245.284 274H246.08V273ZM357.8 273V274H358.566L358.766 273.26L357.8 273ZM431.14 0.919992L432.106 1.18026L432.445 -0.0800076H431.14V0.919992ZM350.96 0.919992V-0.0800076H350.182L349.991 0.674417L350.96 0.919992ZM300.42 200.42V201.42H301.198L301.389 200.666L300.42 200.42ZM296.62 200.42L295.651 200.666L295.842 201.42H296.62V200.42ZM246.08 0.919992L247.049 0.674417L246.858 -0.0800076H246.08V0.919992ZM166.28 0.919992V-0.0800076H165.5L165.31 0.676153L166.28 0.919992ZM116.12 200.42V201.42H116.9L117.09 200.664L116.12 200.42ZM112.32 200.42L111.351 200.667L111.543 201.42H112.32V200.42ZM61.4 0.919992L62.3689 0.672682L62.1768 -0.0800076H61.4V0.919992ZM-18.78 0.919992V-0.0800076H-20.0852L-19.7455 1.18026L-18.78 0.919992ZM54.56 274H166.28V272H54.56V274ZM167.254 273.225L205.254 108.305L203.306 107.855L165.306 272.775L167.254 273.225ZM204.28 109.08H208.08V107.08H204.28V109.08ZM207.106 108.305L245.106 273.225L247.054 272.775L209.054 107.855L207.106 108.305ZM246.08 274H357.8V272H246.08V274ZM358.766 273.26L432.106 1.18026L430.174 0.659729L356.834 272.74L358.766 273.26ZM431.14 -0.0800076H350.96V1.91999H431.14V-0.0800076ZM349.991 0.674417L299.451 200.174L301.389 200.666L351.929 1.16557L349.991 0.674417ZM300.42 199.42H296.62V201.42H300.42V199.42ZM297.589 200.174L247.049 0.674417L245.111 1.16557L295.651 200.666L297.589 200.174ZM246.08 -0.0800076H166.28V1.91999H246.08V-0.0800076ZM165.31 0.676153L115.15 200.176L117.09 200.664L167.25 1.16383L165.31 0.676153ZM116.12 199.42H112.32V201.42H116.12V199.42ZM113.289 200.173L62.3689 0.672682L60.4311 1.1673L111.351 200.667L113.289 200.173ZM61.4 -0.0800076H-18.78V1.91999H61.4V-0.0800076ZM-19.7455 1.18026L53.5945 273.26L55.5255 272.74L-17.8145 0.659729L-19.7455 1.18026ZM454.198 273H453.198V274H454.198V273ZM667.378 273V274H668.378V273H667.378ZM667.378 209.92H668.378V208.92H667.378V209.92ZM531.718 209.92H530.718V210.92H531.718V209.92ZM531.718 161.66V160.66H530.718V161.66H531.718ZM656.358 161.66V162.66H657.358V161.66H656.358ZM656.358 109.6H657.358V108.6H656.358V109.6ZM531.718 109.6H530.718V110.6H531.718V109.6ZM531.718 64V63H530.718V64H531.718ZM663.578 64V65H664.578V64H663.578ZM663.578 0.919992H664.578V-0.0800076H663.578V0.919992ZM454.198 0.919992V-0.0800076H453.198V0.919992H454.198ZM454.198 274H667.378V272H454.198V274ZM668.378 273V209.92H666.378V273H668.378ZM667.378 208.92H531.718V210.92H667.378V208.92ZM532.718 209.92V161.66H530.718V209.92H532.718ZM531.718 162.66H656.358V160.66H531.718V162.66ZM657.358 161.66V109.6H655.358V161.66H657.358ZM656.358 108.6H531.718V110.6H656.358V108.6ZM532.718 109.6V64H530.718V109.6H532.718ZM531.718 65H663.578V63H531.718V65ZM664.578 64V0.919992H662.578V64H664.578ZM663.578 -0.0800076H454.198V1.91999H663.578V-0.0800076ZM453.198 0.919992V273H455.198V0.919992H453.198ZM694.533 273H693.533V274H694.533V273ZM896.693 136.2H895.693V136.968L896.435 137.166L896.693 136.2ZM896.693 132.4L896.367 131.455L895.693 131.687V132.4H896.693ZM694.533 0.919992V-0.0800076H693.533V0.919992H694.533ZM774.713 109.98H773.713V110.98H774.713V109.98ZM774.713 58.68V57.68H773.713V58.68H774.713ZM774.713 215.24H773.713V216.24H774.713V215.24ZM774.713 159.38V158.38H773.713V159.38H774.713ZM694.533 274H841.213V272H694.533V274ZM841.213 274C873.064 274 898.942 267.328 916.887 254.675C934.875 241.992 944.813 223.35 944.813 199.66H942.813C942.813 222.71 933.182 240.738 915.735 253.04C898.245 265.372 872.823 272 841.213 272V274ZM944.813 199.66C944.813 166.905 924.367 142.57 896.952 135.234L896.435 137.166C922.98 144.27 942.813 167.815 942.813 199.66H944.813ZM897.693 136.2V132.4H895.693V136.2H897.693ZM897.019 133.345C919.432 125.617 937.213 104.738 937.213 76.16H935.213C935.213 103.822 918.034 123.983 896.367 131.455L897.019 133.345ZM937.213 76.16C937.213 53.0496 927.569 33.9409 909.785 20.6392C892.032 7.36051 866.243 -0.0800076 833.993 -0.0800076V1.91999C865.964 1.91999 891.285 9.29948 908.587 22.2408C925.858 35.1591 935.213 53.6704 935.213 76.16H937.213ZM833.993 -0.0800076H694.533V1.91999H833.993V-0.0800076ZM693.533 0.919992V273H695.533V0.919992H693.533ZM775.713 109.98V58.68H773.713V109.98H775.713ZM774.713 59.68H818.413V57.68H774.713V59.68ZM818.413 59.68C828.518 59.68 837.038 62.2075 843.003 66.5203C848.946 70.8179 852.373 76.8945 852.373 84.14H854.373C854.373 76.1855 850.581 69.5321 844.174 64.8997C837.789 60.2825 828.829 57.68 818.413 57.68V59.68ZM852.373 84.14C852.373 91.3888 848.943 97.563 842.994 101.956C837.028 106.361 828.511 108.98 818.413 108.98V110.98C828.836 110.98 837.798 108.279 844.182 103.564C850.584 98.8369 854.373 92.0912 854.373 84.14H852.373ZM818.413 108.98H774.713V110.98H818.413V108.98ZM775.713 215.24V159.38H773.713V215.24H775.713ZM774.713 160.38H823.733V158.38H774.713V160.38ZM823.733 160.38C844.757 160.38 859.973 171.967 859.973 187.12H861.973C861.973 170.353 845.27 158.38 823.733 158.38V160.38ZM859.973 187.12C859.973 202.66 844.747 214.24 823.733 214.24V216.24C845.28 216.24 861.973 204.26 861.973 187.12H859.973ZM823.733 214.24H774.713V216.24H823.733V214.24ZM956.858 183.7H955.858V184.7H956.858V183.7ZM1112.66 183.7V184.7H1113.66V183.7H1112.66ZM1112.66 126.7H1113.66V125.7H1112.66V126.7ZM956.858 126.7V125.7H955.858V126.7H956.858ZM956.858 184.7H1112.66V182.7H956.858V184.7ZM1113.66 183.7V126.7H1111.66V183.7H1113.66ZM1112.66 125.7H956.858V127.7H1112.66V125.7ZM955.858 126.7V183.7H957.858V126.7H955.858ZM1138.47 273H1137.47V274H1138.47V273ZM1138.47 0.919992V-0.0800076H1137.47V0.919992H1138.47ZM1215.99 212.58H1214.99V213.58H1215.99V212.58ZM1215.99 61.34V60.34H1214.99V61.34H1215.99ZM1138.47 274H1249.43V272H1138.47V274ZM1249.43 274C1296.35 274 1335.55 260.359 1363.04 236.371C1390.53 212.372 1406.23 178.081 1406.23 136.96H1404.23C1404.23 177.539 1388.76 211.268 1361.72 234.864C1334.68 258.471 1295.98 272 1249.43 272V274ZM1406.23 136.96C1406.23 95.8387 1390.53 61.5477 1363.04 37.5491C1335.55 13.5613 1296.35 -0.0800076 1249.43 -0.0800076V1.91999C1295.98 1.91999 1334.68 15.4487 1361.72 39.0559C1388.76 62.6523 1404.23 96.3813 1404.23 136.96H1406.23ZM1249.43 -0.0800076H1138.47V1.91999H1249.43V-0.0800076ZM1137.47 0.919992V273H1139.47V0.919992H1137.47ZM1216.99 212.58V61.34H1214.99V212.58H1216.99ZM1215.99 62.34H1249.43V60.34H1215.99V62.34ZM1249.43 62.34C1272 62.34 1290.64 69.6741 1303.63 82.6159C1316.62 95.5571 1324.05 114.192 1324.05 136.96H1326.05C1326.05 113.748 1318.46 94.5729 1305.04 81.1991C1291.62 67.8259 1272.45 60.34 1249.43 60.34V62.34ZM1324.05 136.96C1324.05 159.728 1316.62 178.363 1303.63 191.304C1290.64 204.246 1272 211.58 1249.43 211.58V213.58C1272.45 213.58 1291.62 206.094 1305.04 192.721C1318.46 179.347 1326.05 160.172 1326.05 136.96H1324.05ZM1249.43 211.58H1215.99V213.58H1249.43V211.58ZM1432.61 273H1431.61V274H1432.61V273ZM1645.79 273V274H1646.79V273H1645.79ZM1645.79 209.92H1646.79V208.92H1645.79V209.92ZM1510.13 209.92H1509.13V210.92H1510.13V209.92ZM1510.13 161.66V160.66H1509.13V161.66H1510.13ZM1634.77 161.66V162.66H1635.77V161.66H1634.77ZM1634.77 109.6H1635.77V108.6H1634.77V109.6ZM1510.13 109.6H1509.13V110.6H1510.13V109.6ZM1510.13 64V63H1509.13V64H1510.13ZM1641.99 64V65H1642.99V64H1641.99ZM1641.99 0.919992H1642.99V-0.0800076H1641.99V0.919992ZM1432.61 0.919992V-0.0800076H1431.61V0.919992H1432.61ZM1432.61 274H1645.79V272H1432.61V274ZM1646.79 273V209.92H1644.79V273H1646.79ZM1645.79 208.92H1510.13V210.92H1645.79V208.92ZM1511.13 209.92V161.66H1509.13V209.92H1511.13ZM1510.13 162.66H1634.77V160.66H1510.13V162.66ZM1635.77 161.66V109.6H1633.77V161.66H1635.77ZM1634.77 108.6H1510.13V110.6H1634.77V108.6ZM1511.13 109.6V64H1509.13V109.6H1511.13ZM1510.13 65H1641.99V63H1510.13V65ZM1642.99 64V0.919992H1640.99V64H1642.99ZM1641.99 -0.0800076H1432.61V1.91999H1641.99V-0.0800076ZM1431.61 0.919992V273H1433.61V0.919992H1431.61ZM1735.26 273L1734.31 273.283L1734.52 274H1735.26V273ZM1860.28 273V274H1861.03L1861.24 273.284L1860.28 273ZM1940.84 0.919992L1941.8 1.2039L1942.18 -0.0800076H1940.84V0.919992ZM1858 0.919992V-0.0800076H1857.24L1857.04 0.656876L1858 0.919992ZM1799.86 214.1V215.1H1800.63L1800.83 214.363L1799.86 214.1ZM1796.06 214.1L1795.1 214.366L1795.3 215.1H1796.06V214.1ZM1737.16 0.919992L1738.13 0.653677L1737.93 -0.0800076H1737.16V0.919992ZM1655.08 0.919992V-0.0800076H1653.75L1654.13 1.20267L1655.08 0.919992ZM1735.26 274H1860.28V272H1735.26V274ZM1861.24 273.284L1941.8 1.2039L1939.89 0.636086L1859.33 272.716L1861.24 273.284ZM1940.84 -0.0800076H1858V1.91999H1940.84V-0.0800076ZM1857.04 0.656876L1798.9 213.837L1800.83 214.363L1858.97 1.18311L1857.04 0.656876ZM1799.86 213.1H1796.06V215.1H1799.86V213.1ZM1797.03 213.834L1738.13 0.653677L1736.2 1.18631L1795.1 214.366L1797.03 213.834ZM1737.16 -0.0800076H1655.08V1.91999H1737.16V-0.0800076ZM1654.13 1.20267L1734.31 273.283L1736.22 272.717L1656.04 0.637318L1654.13 1.20267Z" fill="#666666"/>
</svg>

<svg xmlns="http://www.w3.org/2000/svg" width="1920" height="273" fill="none" xmlns:v="https://vecta.io/nano"><path d="M54.56 273l-.966.26.199.74h.766v-1zm111.72 0v1h.796l.178-.775-.974-.225zm38-164.92v-1h-.796l-.178.775.974.225zm3.8 0l.974-.225-.178-.775h-.796v1zm38 164.92l-.974.225.178.775h.796v-1zm111.72 0v1h.766l.2-.74-.966-.26zM431.14.92l.966.26.339-1.26h-1.305v1zm-80.18 0v-1h-.778l-.191.754.969.246zm-50.54 199.5v1h.778l.191-.754-.969-.246zm-3.8 0l-.969.246.191.754h.778v-1zM246.08.92l.969-.246-.191-.754h-.778v1zm-79.8 0v-1h-.78l-.19.756.97.244zm-50.16 199.5v1h.78l.19-.756-.97-.244zm-3.8 0l-.969.247.192.753h.777v-1zM61.4.92l.969-.247-.192-.753H61.4v1zm-80.18 0v-1h-1.305l.34 1.26.965-.26zM54.56 274h111.72v-2H54.56v2zm112.694-.775l38-164.92-1.948-.45-38 164.92 1.948.45zM204.28 109.08h3.8v-2h-3.8v2zm2.826-.775l38 164.92 1.948-.45-38-164.92-1.948.45zM246.08 274H357.8v-2H246.08v2zm112.686-.74l73.34-272.08-1.932-.521-73.34 272.08 1.932.52zM431.14-.08h-80.18v2h80.18v-2zm-81.149.754l-50.54 199.5 1.938.492 50.54-199.5-1.938-.491zM300.42 199.42h-3.8v2h3.8v-2zm-2.831.754L247.049.674l-1.938.491 50.54 199.5 1.938-.492zM246.08-.08h-79.8v2h79.8v-2zm-80.77.756l-50.16 199.5 1.94.488 50.16-199.5-1.94-.488zM116.12 199.42h-3.8v2h3.8v-2zm-2.831.753L62.369.673l-1.938.495 50.92 199.5 1.938-.494zM61.4-.08h-80.18v2H61.4v-2zm-81.145 1.26l73.34 272.08 1.931-.52L-17.814.66l-1.931.521zM454.198 273h-1v1h1v-1zm213.18 0v1h1v-1h-1zm0-63.08h1v-1h-1v1zm-135.66 0h-1v1h1v-1zm0-48.26v-1h-1v1h1zm124.64 0v1h1v-1h-1zm0-52.06h1v-1h-1v1zm-124.64 0h-1v1h1v-1zm0-45.6v-1h-1v1h1zm131.86 0v1h1v-1h-1zm0-63.08h1v-1h-1v1zm-209.38 0v-1h-1v1h1zm0 273.08h213.18v-2h-213.18v2zm214.18-1v-63.08h-2V273h2zm-1-64.08h-135.66v2h135.66v-2zm-134.66 1v-48.26h-2v48.26h2zm-1-47.26h124.64v-2h-124.64v2zm125.64-1V109.6h-2v52.06h2zm-1-53.06h-124.64v2h124.64v-2zm-123.64 1V64h-2v45.6h2zm-1-44.6h131.86v-2h-131.86v2zm132.86-1V.92h-2V64h2zm-1-64.08h-209.38v2h209.38v-2zm-210.38 1V273h2V.92h-2zM694.533 273h-1v1h1v-1zm202.16-136.8h-1v.768l.742.198.258-.966zm0-3.8l-.326-.945-.674.232v.713h1zM694.533.92v-1h-1v1h1zm80.18 109.06h-1v1h1v-1zm0-51.3v-1h-1v1h1zm0 156.56h-1v1h1v-1zm0-55.86v-1h-1v1h1zM694.533 274h146.68v-2h-146.68v2zm146.68 0c31.851 0 57.729-6.672 75.674-19.325 17.988-12.683 27.926-31.325 27.926-55.015h-2c0 23.05-9.631 41.078-27.078 53.38-17.49 12.332-42.912 18.96-74.522 18.96v2zm103.6-74.34c0-32.755-20.446-57.09-47.861-64.426l-.517 1.932c26.545 7.104 46.378 30.649 46.378 62.494h2zm-47.12-63.46v-3.8h-2v3.8h2zm-.674-2.855c22.413-7.728 40.194-28.607 40.194-57.185h-2c0 27.662-17.179 47.823-38.846 55.295l.652 1.89zm40.194-57.185c0-23.11-9.644-42.219-27.428-55.521C892.032 7.361 866.243-.08 833.993-.08v2c31.971 0 57.292 7.379 74.594 20.321 17.271 12.918 26.626 31.43 26.626 53.919h2zM833.993-.08h-139.46v2h139.46v-2zm-140.46 1V273h2V.92h-2zm82.18 109.06v-51.3h-2v51.3h2zm-1-50.3h43.7v-2h-43.7v2zm43.7 0c10.105 0 18.625 2.528 24.59 6.84 5.943 4.298 9.37 10.374 9.37 17.62h2c0-7.954-3.792-14.608-10.199-19.24-6.385-4.617-15.345-7.22-25.761-7.22v2zm33.96 24.46c0 7.249-3.43 13.423-9.379 17.816-5.966 4.405-14.483 7.024-24.581 7.024v2c10.423 0 19.385-2.701 25.769-7.416 6.402-4.727 10.191-11.473 10.191-19.424h-2zm-33.96 24.84h-43.7v2h43.7v-2zm-42.7 106.26v-55.86h-2v55.86h2zm-1-54.86h49.02v-2h-49.02v2zm49.02 0c21.024 0 36.24 11.587 36.24 26.74h2c0-16.767-16.703-28.74-38.24-28.74v2zm36.24 26.74c0 15.54-15.226 27.12-36.24 27.12v2c21.547 0 38.24-11.98 38.24-29.12h-2zm-36.24 27.12h-49.02v2h49.02v-2zm133.125-30.54h-1v1h1v-1zm155.802 0v1h1v-1h-1zm0-57h1v-1h-1v1zm-155.802 0v-1h-1v1h1zm0 58h155.802v-2H956.858v2zm156.802-1v-57h-2v57h2zm-1-58H956.858v2h155.802v-2zm-156.802 1v57h2v-57h-2zM1138.47 273h-1v1h1v-1zm0-272.08v-1h-1v1h1zm77.52 211.66h-1v1h1v-1zm0-151.24v-1h-1v1h1zM1138.47 274h110.96v-2h-110.96v2zm110.96 0c46.92 0 86.12-13.641 113.61-37.629 27.49-23.999 43.19-58.29 43.19-99.411h-2c0 40.579-15.47 74.308-42.51 97.904-27.04 23.607-65.74 37.136-112.29 37.136v2zm156.8-137.04c0-41.121-15.7-75.412-43.19-99.411C1335.55 13.561 1296.35-.08 1249.43-.08v2c46.55 0 85.25 13.529 112.29 37.136 27.04 23.596 42.51 57.325 42.51 97.904h2zM1249.43-.08h-110.96v2h110.96v-2zm-111.96 1V273h2V.92h-2zm79.52 211.66V61.34h-2v151.24h2zm-1-150.24h33.44v-2h-33.44v2zm33.44 0c22.57 0 41.21 7.334 54.2 20.276s20.42 31.576 20.42 54.344h2c0-23.212-7.59-42.387-21.01-55.761s-32.59-20.859-55.61-20.859v2zm74.62 74.62c0 22.768-7.43 41.403-20.42 54.344s-31.63 20.276-54.2 20.276v2c23.02 0 42.19-7.486 55.61-20.859s21.01-32.549 21.01-55.761h-2zm-74.62 74.62h-33.44v2h33.44v-2zM1432.61 273h-1v1h1v-1zm213.18 0v1h1v-1h-1zm0-63.08h1v-1h-1v1zm-135.66 0h-1v1h1v-1zm0-48.26v-1h-1v1h1zm124.64 0v1h1v-1h-1zm0-52.06h1v-1h-1v1zm-124.64 0h-1v1h1v-1zm0-45.6v-1h-1v1h1zm131.86 0v1h1v-1h-1zm0-63.08h1v-1h-1v1zm-209.38 0v-1h-1v1h1zm0 273.08h213.18v-2h-213.18v2zm214.18-1v-63.08h-2V273h2zm-1-64.08h-135.66v2h135.66v-2zm-134.66 1v-48.26h-2v48.26h2zm-1-47.26h124.64v-2h-124.64v2zm125.64-1V109.6h-2v52.06h2zm-1-53.06h-124.64v2h124.64v-2zm-123.64 1V64h-2v45.6h2zm-1-44.6h131.86v-2h-131.86v2zm132.86-1V.92h-2V64h2zm-1-64.08h-209.38v2h209.38v-2zm-210.38 1V273h2V.92h-2zM1735.26 273l-.95.283.21.717h.74v-1zm125.02 0v1h.75l.21-.716-.96-.284zM1940.84.92l.96.284.38-1.284h-1.34v1zm-82.84 0v-1h-.76l-.2.737.96.263zm-58.14 213.18v1h.77l.2-.737-.97-.263zm-3.8 0l-.96.266.2.734h.76v-1zM1737.16.92l.97-.266-.2-.734h-.77v1zm-82.08 0v-1h-1.33l.38 1.283.95-.283zM1735.26 274h125.02v-2h-125.02v2zm125.98-.716l80.56-272.08-1.91-.568-80.56 272.08 1.91.568zM1940.84-.08H1858v2h82.84v-2zm-83.8.737l-58.14 213.18 1.93.526 58.14-213.18-1.93-.526zM1799.86 213.1h-3.8v2h3.8v-2zm-2.83.734L1738.13.654l-1.93.533 58.9 213.18 1.93-.532zM1737.16-.08h-82.08v2h82.08v-2zm-83.03 1.283l80.18 272.08 1.91-.566L1656.04.637l-1.91.565z" fill="#666"/></svg>
